public/assets/dpx.svg

<svg width="32" height="32" fill="none" xmlns="http://www.w3.org/2000/svg"><g clip-path="url(#clip0)"><ellipse cx="15.9711" cy="16" rx="15.9711" ry="16" fill="#000"/><path fill-rule="evenodd" clip-rule="evenodd" d="M8.92981 12.3643L12.8662 6.22559L6.99804 12.0937C6.50978 12.582 6.73949 13.4161 7.40888 13.5856L10.5192 14.373C10.2415 14.8095 9.92699 15.36 9.68255 15.9435C9.45862 16.4781 9.2719 17.09 9.25341 17.6961C9.23447 18.3168 9.39365 18.9819 9.91851 19.5067C10.7071 20.2953 11.2798 20.5705 11.7372 20.7902C11.7712 20.8065 11.8046 20.8225 11.8373 20.8384C12.0501 20.9418 12.2073 21.0266 12.3741 21.1599C12.5425 21.2945 12.7469 21.5002 13.0095 21.8612C13.0563 21.9255 13.1058 21.9942 13.158 22.0667C13.7306 22.8612 14.6292 24.1083 15.7888 24.936C16.4359 25.3979 17.204 25.7608 18.0821 25.8318C18.9716 25.9038 19.9006 25.6701 20.846 25.0612C21.7516 24.4779 22.3484 23.8282 22.6291 23.0715C22.9119 22.3094 22.8281 21.5625 22.6224 20.8851C22.4341 20.2646 22.1198 19.632 21.8264 19.0414L21.7711 18.93C21.4503 18.2831 21.1476 17.6578 20.9461 17.0031C20.5529 15.725 20.8196 15.1713 20.9873 14.952C21.0857 14.8233 21.1991 14.744 21.2871 14.6972C21.3308 14.674 21.3658 14.6601 21.385 14.6532L21.3954 14.6497L21.4138 14.6454L21.4454 14.635L21.4456 14.6349L21.5847 14.5893L21.9516 14.4686C22.2554 14.3685 22.6613 14.2344 23.0691 14.0984C23.4764 13.9627 23.8878 13.8244 24.2019 13.7162C24.3582 13.6623 24.4944 13.6145 24.595 13.5777C24.6443 13.5597 24.6915 13.5419 24.7304 13.5262C24.7488 13.5187 24.7745 13.5081 24.801 13.4957C24.8136 13.4897 24.8361 13.4789 24.8621 13.4642L24.8633 13.4635C24.8753 13.4569 24.956 13.4123 25.035 13.3333C25.3512 13.0171 25.25 12.6296 25.2396 12.5898L25.2391 12.5879C25.2149 12.493 25.178 12.4246 25.1663 12.4032C25.1371 12.3495 25.1067 12.3087 25.0962 12.2947C25.0688 12.2579 25.0383 12.222 25.0151 12.1954C24.9647 12.1374 24.8955 12.062 24.8153 11.9764C24.7193 11.8738 22.8534 9.98365 21.2858 8.39569C20.2004 7.29622 19.2581 6.34163 19.1452 6.22559C19.1586 6.23932 20.1625 7.81888 21.1563 9.38235C22.1299 10.9143 23.0938 12.4307 23.1064 12.4437C22.9356 12.5012 22.7562 12.5612 22.5766 12.6211C22.1711 12.7563 21.7671 12.8898 21.4643 12.9896L21.0988 13.1098L20.9813 13.1484L20.9646 13.1531C20.9372 13.1611 20.9025 13.172 20.8621 13.1864C20.7814 13.2152 20.6755 13.2587 20.5558 13.3223C20.3172 13.4493 20.0134 13.662 19.7503 14.0061C19.195 14.7323 18.9611 15.847 19.4578 17.461C19.7012 18.2523 20.059 18.9827 20.376 19.6219L20.4071 19.6845C20.7225 20.3204 20.9829 20.8453 21.1323 21.3375C21.2813 21.828 21.2913 22.2004 21.1691 22.5298C21.0449 22.8646 20.738 23.2785 20.0028 23.752C19.3076 24.1997 18.7146 24.3206 18.2076 24.2796C17.6892 24.2377 17.1859 24.02 16.6935 23.6685C15.7547 22.9984 15.0015 21.9575 14.4079 21.137L14.4077 21.1368C14.3604 21.0715 14.3142 21.0075 14.2689 20.9453C13.945 20.4999 13.6476 20.1842 13.3463 19.9434C13.0433 19.7013 12.7628 19.5567 12.5175 19.4376C12.4826 19.4207 12.4481 19.4041 12.4137 19.3876L12.4123 19.3869L12.4119 19.3867C12.009 19.1934 11.6218 19.0077 11.0197 18.4056C10.8809 18.2668 10.8001 18.0673 10.8099 17.7436C10.8203 17.4054 10.9312 16.9933 11.1189 16.5452C11.493 15.6522 12.0866 14.8136 12.3237 14.4968C12.7108 13.9796 12.4353 13.2517 11.8278 13.0979L8.92981 12.3643ZM15.4945 18.7308C15.4945 18.7308 14.2944 18.7308 13.4944 17.9947C12.6943 17.2585 13.4944 15.7862 13.4944 15.7862C13.4944 15.7862 13.7277 15.9334 14.6111 16.964C15.4945 17.9947 15.4945 18.7308 15.4945 18.7308Z" fill="url(#paint0_linear)"/></g><defs><linearGradient id="paint0_linear" x1="16.0307" y1="15.063" x2="16" y2="25.8444" gradientUnits="userSpaceOnUse"><stop stop-color="#22E1FF"/><stop offset="1" stop-color="#002EFF"/></linearGradient><clipPath id="clip0"><path fill="#fff" d="M0 0H31.9422V32H0z"/></clipPath></defs></svg>

<svg width="32" height="32" fill="none" xmlns="http://www.w3.org/2000/svg"><g clip-path="url(#a)"><ellipse cx="15.971" cy="16" rx="15.971" ry="16" fill="#000"/><path fill-rule="evenodd" clip-rule="evenodd" d="m8.93 12.364 3.936-6.138-5.868 5.868a.89.89 0 0 0 .41 1.492l3.111.787c-.277.437-.592.987-.836 1.57-.224.535-.411 1.147-.43 1.753-.019.62.14 1.286.666 1.81.788.79 1.36 1.064 1.818 1.284l.1.048c.213.104.37.189.537.322.168.134.373.34.635.701l.149.206c.573.794 1.471 2.041 2.63 2.869.648.462 1.416.825 2.294.896.89.072 1.819-.162 2.764-.77.906-.584 1.502-1.234 1.783-1.99.283-.763.2-1.51-.007-2.187-.188-.62-.502-1.253-.796-1.844l-.055-.111c-.32-.647-.623-1.272-.825-1.927-.393-1.278-.126-1.832.041-2.051a.925.925 0 0 1 .398-.299l.01-.003.019-.005.031-.01.14-.046.367-.12a334.57 334.57 0 0 0 2.25-.753 24.05 24.05 0 0 0 .528-.19 1.52 1.52 0 0 0 .132-.062h.001a.78.78 0 0 0 .376-.874v-.002a.796.796 0 0 0-.143-.293 1.707 1.707 0 0 0-.08-.1 8.494 8.494 0 0 0-.2-.219 1427.31 1427.31 0 0 0-3.53-3.58c-1.086-1.1-2.028-2.054-2.14-2.17.013.013 1.017 1.593 2.01 3.156a682.059 682.059 0 0 0 1.95 3.062 200.715 200.715 0 0 1-1.642.546l-.365.12-.118.038-.016.005a2.314 2.314 0 0 0-.409.17c-.239.126-.543.339-.806.683-.555.726-.789 1.841-.292 3.455.243.791.601 1.522.918 2.16l.031.064c.316.635.576 1.16.725 1.652.15.491.16.863.037 1.193-.124.335-.431.748-1.166 1.222-.695.448-1.288.569-1.795.528-.519-.042-1.022-.26-1.514-.611-.94-.67-1.692-1.712-2.286-2.532l-.14-.192c-.323-.445-.62-.76-.922-1.002a4.176 4.176 0 0 0-.829-.505 30.86 30.86 0 0 0-.103-.05l-.002-.001c-.403-.194-.79-.38-1.392-.981-.14-.14-.22-.339-.21-.662.01-.339.121-.75.309-1.199.374-.893.968-1.731 1.205-2.048a.892.892 0 0 0-.496-1.4l-2.898-.733Zm6.565 6.367s-1.2 0-2-.736 0-2.209 0-2.209.233.147 1.116 1.178c.883 1.03.883 1.767.883 1.767Z" fill="url(#b)"/></g><defs><linearGradient id="b" x1="16.031" y1="15.063" x2="16" y2="25.844" gradientUnits="userSpaceOnUse"><stop stop-color="#22E1FF"/><stop offset="1" stop-color="#002EFF"/></linearGradient><clipPath id="a"><path fill="#fff" d="M0 0h31.942v32H0z"/></clipPath></defs></svg>
